icons/circle/48/gnucash-icon.svg

<svg xmlns="http://www.w3.org/2000/svg" viewBox="0 0 48 48">
 <defs>
  <linearGradient gradientTransform="matrix(0,-1,1,0,0,48)" id="linearGradient4190-6" x1="1" x2="47" gradientUnits="userSpaceOnUse">
   <stop style="stop-color:#526196;stop-opacity:1"/>
   <stop offset="1" style="stop-color:#5969a3;stop-opacity:1"/>
  </linearGradient>
 </defs>
 <g>
  <path d="m 36.31 5 c 5.859 4.062 9.688 10.831 9.688 18.5 c 0 12.426 -10.07 22.5 -22.5 22.5 c -7.669 0 -14.438 -3.828 -18.5 -9.688 c 1.037 1.822 2.306 3.499 3.781 4.969 c 4.085 3.712 9.514 5.969 15.469 5.969 c 12.703 0 23 -10.298 23 -23 c 0 -5.954 -2.256 -11.384 -5.969 -15.469 c -1.469 -1.475 -3.147 -2.744 -4.969 -3.781 z m 4.969 3.781 c 3.854 4.113 6.219 9.637 6.219 15.719 c 0 12.703 -10.297 23 -23 23 c -6.081 0 -11.606 -2.364 -15.719 -6.219 c 4.16 4.144 9.883 6.719 16.219 6.719 c 12.703 0 23 -10.298 23 -23 c 0 -6.335 -2.575 -12.06 -6.719 -16.219 z" style="opacity:0.05"/>
  <path d="m 41.28 8.781 c 3.712 4.085 5.969 9.514 5.969 15.469 c 0 12.703 -10.297 23 -23 23 c -5.954 0 -11.384 -2.256 -15.469 -5.969 c 4.113 3.854 9.637 6.219 15.719 6.219 c 12.703 0 23 -10.298 23 -23 c 0 -6.081 -2.364 -11.606 -6.219 -15.719 z" style="opacity:0.1"/>
  <path d="m 31.25 2.375 c 8.615 3.154 14.75 11.417 14.75 21.13 c 0 12.426 -10.07 22.5 -22.5 22.5 c -9.708 0 -17.971 -6.135 -21.12 -14.75 a 23 23 0 0 0 44.875 -7 a 23 23 0 0 0 -16 -21.875 z" style="opacity:0.2"/>
 </g>
 <path d="m 22.367 8.504 c -9.922 0.238 -19.483 5.305 -21.352 14.842 c 0 0.001 0 0.001 0 0.002 c -0.006 0.217 -0.016 0.434 -0.016 0.652 c 0 12.703 10.297 23 23 23 c 11.747 0 21.429 -8.809 22.82 -20.18 c -1.498 -12.655 -13.208 -18.587 -24.453 -18.316 z m 24.453 18.316 c 0.055 -0.449 0.1 -0.901 0.129 -1.357 c -0.031 0.456 -0.074 0.908 -0.129 1.357 z m 0.18 -2.82 c 0 0.472 -0.017 0.94 -0.047 1.404 c 0.028 -0.465 0.047 -0.932 0.047 -1.404 z" style="fill:url(#linearGradient4190-6);fill-opacity:1"/>
 <path d="m 24 1 c -12.484 0 -22.638 9.947 -22.984 22.348 l 12.984 -8.348 l 6 7 l 13 -9 l 13.82 13.82 c 0.113 -0.925 0.18 -1.865 0.18 -2.82 c 0 -12.703 -10.297 -23 -23 -23 z" style="fill:#7e8cc0;fill-opacity:1"/>
 <path d="m 34 12 c -1.105 0 -2 0.895 -2 2 c 0 0.123 0.016 0.242 0.037 0.359 l -10.01 6.932 c -0.301 -0.181 -0.649 -0.291 -1.025 -0.291 c -0.26 0 -0.507 0.053 -0.734 0.143 l -3.545 -4.137 c 0.173 -0.296 0.279 -0.638 0.279 -1.01 c 0 -1.105 -0.895 -2 -2 -2 c -1.105 0 -2 0.895 -2 2 c 0 0.092 0.015 0.179 0.027 0.268 l -12.03 7.732 c 0 0.655 0.034 1.302 0.088 1.943 l 12.844 -8.258 c 0.309 0.196 0.675 0.314 1.068 0.314 c 0.26 0 0.507 -0.053 0.734 -0.143 l 3.545 4.137 c -0.173 0.296 -0.279 0.638 -0.279 1.01 c 0 1.105 0.895 2 2 2 c 1.105 0 2 -0.895 2 -2 c 0 -0.123 -0.016 -0.242 -0.037 -0.359 l 10.01 -6.932 c 0.301 0.181 0.649 0.291 1.025 0.291 c 0.293 0 0.57 -0.067 0.82 -0.18 l 11.879 11.879 c 0.095 -0.588 0.165 -1.183 0.215 -1.785 l -11.09 -11.09 c 0.113 -0.251 0.18 -0.527 0.18 -0.82 c 0 -1.105 -0.895 -2 -2 -2 z" style="fill:#000;opacity:0.1;fill-opacity:1"/>
 <g>
  <g>
   <g transform="translate(1,1)">
    <g style="opacity:0.1">
     <!-- color: #5968a2 -->
    </g>
   </g>
  </g>
 </g>
 <path d="m 33 12 l -13 9 l -6 -7 l -12.932 8.313 c -0.041 0.558 -0.068 1.119 -0.068 1.688 c 0 0.118 0.006 0.234 0.008 0.352 l 12.992 -8.352 l 6 7 l 13 -9 l 13.699 13.699 c 0.095 -0.588 0.165 -1.183 0.215 -1.785 l -13.914 -13.914 z" style="fill:#bac5e5;fill-opacity:1"/>
 <g>
  <g>
   <!-- color: #5968a2 -->
   <g>
    <path d="m 16 15 c 0 1.105 -0.895 2 -2 2 c -1.105 0 -2 -0.895 -2 -2 c 0 -1.105 0.895 -2 2 -2 c 1.105 0 2 0.895 2 2 m 0 0" style="fill:#ffcf67;fill-opacity:1;stroke:none;fill-rule:nonzero"/>
    <path d="m 22 22 c 0 1.105 -0.895 2 -2 2 c -1.105 0 -2 -0.895 -2 -2 c 0 -1.105 0.895 -2 2 -2 c 1.105 0 2 0.895 2 2 m 0 0" style="fill:#ffcf67;fill-opacity:1;stroke:none;fill-rule:nonzero"/>
    <path d="m 35 13 c 0 1.105 -0.895 2 -2 2 c -1.105 0 -2 -0.895 -2 -2 c 0 -1.105 0.895 -2 2 -2 c 1.105 0 2 0.895 2 2 m 0 0" style="fill:#ffcf67;fill-opacity:1;stroke:none;fill-rule:nonzero"/>
   </g>
  </g>
 </g>
 <g>
  <path d="m 40.03 7.531 c 3.712 4.084 5.969 9.514 5.969 15.469 0 12.703 -10.297 23 -23 23 c -5.954 0 -11.384 -2.256 -15.469 -5.969 4.178 4.291 10.01 6.969 16.469 6.969 c 12.703 0 23 -10.298 23 -23 0 -6.462 -2.677 -12.291 -6.969 -16.469 z" style="opacity:0.1"/>
 </g>
</svg>

<svg xmlns="http://www.w3.org/2000/svg" viewBox="0 0 48 48">
  <defs>
    <linearGradient gradientTransform="rotate(-90 24 24)" id="a" x1="1" x2="47" gradientUnits="userSpaceOnUse">
      <stop stop-color="#526196"/>
      <stop offset="1" stop-color="#5969a3"/>
    </linearGradient>
  </defs>
  <path d="M36.31 5c5.859 4.062 9.688 10.831 9.688 18.5 0 12.426-10.07 22.5-22.5 22.5-7.669 0-14.438-3.828-18.5-9.688a23.24 23.24 0 0 0 3.781 4.969 22.923 22.923 0 0 0 15.469 5.969c12.703 0 23-10.298 23-23a22.92 22.92 0 0 0-5.969-15.469A23.216 23.216 0 0 0 36.31 5zm4.969 3.781A22.911 22.911 0 0 1 47.498 24.5c0 12.703-10.297 23-23 23a22.909 22.909 0 0 1-15.719-6.219C12.939 45.425 18.662 48 24.998 48c12.703 0 23-10.298 23-23 0-6.335-2.575-12.06-6.719-16.219z" opacity=".05"/>
  <path d="M41.28 8.781a22.923 22.923 0 0 1 5.969 15.469c0 12.703-10.297 23-23 23A22.92 22.92 0 0 1 8.78 41.281 22.911 22.911 0 0 0 24.499 47.5c12.703 0 23-10.298 23-23A22.909 22.909 0 0 0 41.28 8.781z" opacity=".1"/>
  <path d="M31.25 2.375C39.865 5.529 46 13.792 46 23.505c0 12.426-10.07 22.5-22.5 22.5-9.708 0-17.971-6.135-21.12-14.75a23 23 0 0 0 44.875-7 23 23 0 0 0-16-21.875z" opacity=".2"/>
  <path d="M22.367 8.504c-9.922.238-19.483 5.305-21.352 14.842v.002c-.006.217-.016.434-.016.652 0 12.703 10.297 23 23 23 11.747 0 21.429-8.809 22.82-20.18C45.321 14.165 33.611 8.233 22.366 8.504zM46.82 26.82zM47 24z" fill="url(#a)"/>
  <path d="M24 1C11.516 1 1.362 10.947 1.016 23.348L14 15l6 7 13-9 13.82 13.82c.113-.925.18-1.865.18-2.82C47 11.297 36.703 1 24 1z" fill="#7e8cc0"/>
  <path d="M34 12a2 2 0 0 0-2 2c0 .123.016.242.037.359l-10.01 6.932A1.98 1.98 0 0 0 21.002 21c-.26 0-.507.053-.734.143l-3.545-4.137a1.992 1.992 0 0 0-1.721-3.01 2 2 0 0 0-2 2c0 .092.015.179.027.268L.999 23.996c0 .655.034 1.302.088 1.943l12.844-8.258a1.99 1.99 0 0 0 1.068.314c.26 0 .507-.053.734-.143l3.545 4.137a1.992 1.992 0 0 0 1.721 3.01 2 2 0 0 0 2-2c0-.123-.016-.242-.037-.359l10.01-6.932a1.98 1.98 0 0 0 1.025.291c.293 0 .57-.067.82-.18l11.879 11.879c.095-.588.165-1.183.215-1.785l-11.09-11.09a1.99 1.99 0 0 0 .18-.82 2 2 0 0 0-2-2z" opacity=".1"/>
  <path d="M33 12l-13 9-6-7-12.932 8.313A22.98 22.98 0 0 0 1 24.001c0 .118.006.234.008.352L14 16.001l6 7 13-9L46.699 27.7c.095-.588.165-1.183.215-1.785L33 12.001z" fill="#bac5e5"/>
  <g>
    <g fill="#ffcf67">
      <path d="M16 15a2 2 0 1 1-3.999.001A2 2 0 0 1 16 15m0 0M22 22a2 2 0 1 1-3.999.001A2 2 0 0 1 22 22m0 0M35 13a2 2 0 1 1-3.999.001A2 2 0 0 1 35 13m0 0"/>
    </g>
  </g>
  <g>
    <path d="M40.03 7.531A22.922 22.922 0 0 1 45.999 23c0 12.703-10.297 23-23 23A22.92 22.92 0 0 1 7.53 40.031C11.708 44.322 17.54 47 23.999 47c12.703 0 23-10.298 23-23 0-6.462-2.677-12.291-6.969-16.469z" opacity=".1"/>
  </g>
</svg>
